X:540
T:
C:
S:Efter »Florsen» i Burs
R:vals
O:Gotland, Burs
M:3/4
L:1/8
K:F
c2|(fe)(dc)(BA)|c3 A F2|(EG)(BG)(EG)|(FA)(cf)(eg)|(fe)(dc)(BA)|c3 G F2|
(EG)(BE)(GA)|F4:|
K:Bb
|:D2|F4 E2|D2 BB B2|(AB)(cF)(GA)|B2 dd d2|F4 E2|D2 BB B2(AB)(cF)(GA)|B4:|
K:F
|:cB|(Ac)(de)(fg)|a3 g f2|(ef)(gb)(eg)|f2 cA F2|(Ac)(de)(fg)|a3 g f2|
(ef)(gb)(eg)|f4:|

